dist/icons/svgs/location-dot-slash-solid.svg

<svg xmlns="http://www.w3.org/2000/svg" width="24" height="24" fill="currentcolor" class="icon-location-dot-slash-solid" viewBox="0 0 24 24">
  <path d="M2.48459 2.23438L7.01584 5.75C8.3049 3.52344 10.7268 2 13.5002 2C17.6408 2 21.0002 5.35938 21.0002 9.5C21.0002 11.0234 20.1018 13.0547 18.9299 15.0859L25.6096 20.3594C26.0393 20.6719 26.1174 21.2578 25.7658 21.6484C25.4533 22.0781 24.8674 22.1562 24.4768 21.8047L1.35177 3.67969C0.922087 3.36719 0.843962 2.78125 1.19552 2.39062C1.50802 1.96094 2.09396 1.88281 2.48459 2.23438ZM11.0393 8.91406L14.633 11.7266C15.4533 11.2969 16.0002 10.4766 16.0002 9.5C16.0002 8.13281 14.8674 7 13.5002 7C12.2893 7 11.3127 7.82031 11.0393 8.91406ZM14.3986 21.5312C13.9299 22.1172 13.0315 22.1172 12.5627 21.5312C10.5705 19.0703 6.15646 13.1719 6.00021 9.69531L16.8596 18.2891C15.9221 19.5781 15.0236 20.7109 14.3986 21.5312Z"/>
</svg>

<svg xmlns="http://www.w3.org/2000/svg" width="24" height="24" fill="currentColor" class="icon-location-dot-slash-solid" viewBox="0 0 24 24">
  <path d="m2.485 2.234 4.53 3.516A7.5 7.5 0 0 1 13.5 2C17.64 2 21 5.36 21 9.5c0 1.523-.898 3.555-2.07 5.586l6.68 5.273c.43.313.507.899.156 1.29-.313.43-.899.507-1.29.156L1.353 3.68c-.43-.313-.508-.899-.156-1.29.312-.43.898-.507 1.289-.156m8.554 6.68 3.594 2.813c.82-.43 1.367-1.25 1.367-2.227a2.518 2.518 0 0 0-4.96-.586m3.36 12.617a1.178 1.178 0 0 1-1.836 0C10.57 19.071 6.156 13.171 6 9.695l10.86 8.594c-.938 1.29-1.836 2.422-2.461 3.242"/>
</svg>
